X:16266
T:Tableau Clog
R:Hornpipe
M:4/4
L:1/8
K:G
(3def|a>gd>B A>GB>d|f>ec>A E2_E2|D>FA>g f>ed>e|B>c^c>d e>de>f|
a>gd>B A>GB>d|f>ec>A E2_E2|D>FA>g f>dA>d|G2B2 G2:|
K:D
B>_B|A>gB>^B c>ba>g|f>ad>f B>Af>d|c>eA>c G>Ac>B|A>B (3cde f>dA>F|
A>gB>^B c>ba>g|f>ad>f B>Af>d|c>Bg>e (3dcB (3ABc|d2f2 d2:|
